assets/symbols/mulberry/middle.svg

<svg height="850.394" viewBox="0 0 850.394 850.394" width="850.394" xmlns="http://www.w3.org/2000/svg"><path d="m158.438 69.201h184.124v184.12h-184.124z" fill="none"/><path d="m342.563 243.32h-184.124l10 10v-149.348-34.772l-10 10h184.124l-10-10v184.12c0 12.897 20 12.897 20 0v-149.348-34.772c0-5.451-4.549-10-10-10h-184.124c-5.451 0-10 4.549-10 10v184.12c0 5.451 4.549 10 10 10h184.124c12.897 0 12.897-20 0-20z" fill="#231f20"/><path d="m161.305 597.136h178.392v178.387h-178.392z" fill="none"/><path d="m161.305 607.136h178.391l-10-10v178.387l10-10h-178.391l10 10v-149.762-28.625c0-12.897-20-12.897-20 0v178.387c0 5.451 4.549 10 10 10h178.391c5.451 0 10-4.549 10-10v-149.762-28.625c0-5.451-4.549-10-10-10h-178.391c-12.898 0-12.898 20 0 20z" fill="#231f20"/><path d="m161.305 333.376h178.392v178.38h-178.392z" fill="none"/><g fill="#5668af"><circle cx="339.696" cy="363.106" r="14.292"/><circle cx="339.696" cy="392.836" r="14.292"/><circle cx="339.696" cy="422.566" r="14.292"/><circle cx="339.696" cy="452.297" r="14.292"/><circle cx="339.696" cy="482.026" r="14.292"/><circle cx="309.964" cy="511.756" r="14.292"/><circle cx="280.232" cy="511.756" r="14.292"/><circle cx="250.5" cy="511.756" r="14.292"/><circle cx="220.768" cy="511.756" r="14.292"/><circle cx="191.036" cy="511.756" r="14.292"/><circle cx="161.305" cy="482.025" r="14.292"/><circle cx="161.305" cy="452.296" r="14.292"/><circle cx="161.305" cy="422.565" r="14.292"/><circle cx="161.305" cy="392.835" r="14.292"/><circle cx="161.305" cy="363.105" r="14.292"/><circle cx="191.037" cy="333.376" r="14.292"/><circle cx="220.769" cy="333.376" r="14.292"/><circle cx="250.501" cy="333.376" r="14.292"/><circle cx="280.233" cy="333.376" r="14.292"/><circle cx="309.965" cy="333.376" r="14.292"/><circle cx="339.696" cy="511.756" r="14.292"/><circle cx="161.305" cy="511.756" r="14.292"/><circle cx="161.305" cy="333.376" r="14.292"/><circle cx="339.696" cy="333.376" r="14.292"/></g><path d="m0 0h850.394v850.394h-850.394z" fill="none"/><g stroke="#231f20" stroke-width="25.995"><path d="m755.042 424.54h-312.993" fill="#fff"/><path d="m540.126 334.09-99.983 90.78 100.147 90.753" fill="none"/></g></svg>

<svg xmlns="http://www.w3.org/2000/svg" width="850.394" height="850.394" viewBox="0 0 850.394 850.394" overflow="visible"><path fill="none" d="M158.438 69.201h184.124v184.12H158.438z"/><path d="M342.563 243.32H158.439l10 10V103.972 69.2l-10 10h184.124l-10-10v184.12c0 12.897 20 12.897 20 0V103.972 69.2c0-5.451-4.549-10-10-10H158.439c-5.451 0-10 4.549-10 10v184.12c0 5.451 4.549 10 10 10h184.124c12.897 0 12.897-20 0-20z" fill="#231f20"/><path fill="none" d="M161.305 597.136h178.392v178.387H161.305z"/><path d="M161.305 607.136h178.391l-10-10v178.387l10-10H161.305l10 10V625.761v-28.625c0-12.897-20-12.897-20 0v178.387c0 5.451 4.549 10 10 10h178.391c5.451 0 10-4.549 10-10V625.761v-28.625c0-5.451-4.549-10-10-10H161.305c-12.898 0-12.898 20 0 20z" fill="#231f20"/><path fill="none" d="M161.305 333.376h178.392v178.38H161.305z"/><circle cx="339.696" cy="363.106" r="14.292" fill="#5668af"/><circle cx="339.696" cy="392.836" r="14.292" fill="#5668af"/><circle cx="339.696" cy="422.566" r="14.292" fill="#5668af"/><circle cx="339.696" cy="452.297" r="14.292" fill="#5668af"/><circle cx="339.696" cy="482.026" r="14.292" fill="#5668af"/><circle cx="309.964" cy="511.756" r="14.292" fill="#5668af"/><circle cx="280.232" cy="511.756" r="14.292" fill="#5668af"/><circle cx="250.5" cy="511.756" r="14.292" fill="#5668af"/><circle cx="220.768" cy="511.756" r="14.292" fill="#5668af"/><circle cx="191.036" cy="511.756" r="14.292" fill="#5668af"/><circle cx="161.305" cy="482.025" r="14.292" fill="#5668af"/><circle cx="161.305" cy="452.296" r="14.292" fill="#5668af"/><circle cx="161.305" cy="422.565" r="14.292" fill="#5668af"/><circle cx="161.305" cy="392.835" r="14.292" fill="#5668af"/><circle cx="161.305" cy="363.105" r="14.292" fill="#5668af"/><circle cx="191.037" cy="333.376" r="14.292" fill="#5668af"/><circle cx="220.769" cy="333.376" r="14.292" fill="#5668af"/><circle cx="250.501" cy="333.376" r="14.292" fill="#5668af"/><circle cx="280.233" cy="333.376" r="14.292" fill="#5668af"/><circle cx="309.965" cy="333.376" r="14.292" fill="#5668af"/><circle cx="339.696" cy="511.756" r="14.292" fill="#5668af"/><circle cx="161.305" cy="511.756" r="14.292" fill="#5668af"/><circle cx="161.305" cy="333.376" r="14.292" fill="#5668af"/><circle cx="339.696" cy="333.376" r="14.292" fill="#5668af"/><path fill="none" d="M0 0h850.394v850.394H0z"/><g stroke="#231f20" stroke-width="25.995"><path fill="#fff" d="M755.042 424.54H442.049"/><path fill="none" d="M540.126 334.09l-99.983 90.78 100.147 90.753"/></g></svg>
